assets/svg/1F36B.svg

<svg xmlns="http://www.w3.org/2000/svg" viewBox="0 0 64 64" enable-background="new 0 0 64 64"><g transform="translate(6)"><path d="m51.962 15.5c.658-1.539-.072-3.375-1.611-4.04-8.694-3.74-17.39-7.479-26.09-11.22-1.539-.659-3.379.072-4.04 1.611-6.664 15.486-13.323 30.977-19.983 46.46-.663 1.539.068 3.375 1.606 4.03 8.695 3.74 17.393 7.484 26.09 11.225.829.356 1.594.327 2.24.063.036-.013.07-.025.108-.038.036-.013.074-.03.108-.047.646-.255 1.224-.757 1.579-1.585 6.663-15.49 13.324-30.977 19.986-46.47" fill="#67308f"/><path d="m43.489 35.2l8.473-19.697c.658-1.539-.072-3.375-1.611-4.04l-26.09-11.22c-1.539-.659-3.379.072-4.04 1.611-2.353 5.47-4.705 10.939-7.06 16.409 9.868 6.01 20 11.627 30.32 16.935" fill="#8a5f3d"/><g fill="#764d2a"><path d="m19.06 30.32l11.486-27.408-1.511-.629-10.998 26.26c.376.57.72 1.161 1.023 1.777"/><path d="m24.869 41.538l14.558-34.738-1.509-.629-13.855 33.07c.262.77.53 1.534.806 2.295"/><path d="m48.728 23.667l-32.18-13.485c-.17.523-.359 1.033-.595 1.521l32.02 13.417c.201-.5.464-.985.754-1.453"/><path transform="matrix(.9228.3852-.3852.9228 14.447-13.246)" d="m39.471 8.902h1.633v41.07h-1.633z"/></g><path d="m43.489 35.2c4.214 3.735-11.914 14.811-14.341 17.552-2.427 2.737-3.302-5.665-6.528-13.692-2.509-6.243-13.1-20.544-9.452-20.795 4.557-.31 26.12 13.2 30.32 16.935" fill="#e7e6e6"/></g></svg>

<?xml version="1.0" encoding="UTF-8" standalone="no"?>
<!-- Generator: Adobe Illustrator 16.0.0, SVG Export Plug-In . SVG Version: 6.00 Build 0)  -->

<svg
   xmlns:dc="http://purl.org/dc/elements/1.1/"
   xmlns:cc="http://creativecommons.org/ns#"
   xmlns:rdf="http://www.w3.org/1999/02/22-rdf-syntax-ns#"
   xmlns:svg="http://www.w3.org/2000/svg"
   xmlns="http://www.w3.org/2000/svg"
   xmlns:sodipodi="http://sodipodi.sourceforge.net/DTD/sodipodi-0.dtd"
   xmlns:inkscape="http://www.inkscape.org/namespaces/inkscape"
   version="1.1"
   id="Layer_1"
   x="0px"
   y="0px"
   width="64px"
   height="64px"
   viewBox="0 0 64 64"
   enable-background="new 0 0 64 64"
   xml:space="preserve"
   inkscape:version="0.48.5 r10040"
   sodipodi:docname="1F36B.svg"
   inkscape:export-filename="D:\TESTINGEMOJI\SVGTEST\1F36B.png"
   inkscape:export-xdpi="90"
   inkscape:export-ydpi="90"><metadata
   id="metadata4362"><rdf:RDF><cc:Work
       rdf:about=""><dc:format>image/svg+xml</dc:format><dc:type
         rdf:resource="http://purl.org/dc/dcmitype/StillImage" /><dc:title></dc:title></cc:Work></rdf:RDF></metadata><defs
   id="defs4360" /><sodipodi:namedview
   pagecolor="#ffffff"
   bordercolor="#666666"
   borderopacity="1"
   objecttolerance="10"
   gridtolerance="10"
   guidetolerance="10"
   inkscape:pageopacity="0"
   inkscape:pageshadow="2"
   inkscape:window-width="640"
   inkscape:window-height="480"
   id="namedview4358"
   showgrid="false"
   inkscape:zoom="3.6875"
   inkscape:cx="32"
   inkscape:cy="32"
   inkscape:window-x="910"
   inkscape:window-y="316"
   inkscape:window-maximized="0"
   inkscape:current-layer="Layer_1" />
<g
   id="g4342"
   transform="translate(6,0)">
	<path
   d="M 51.962,15.5 C 52.62,13.961 51.89,12.125 50.351,11.462 41.657,7.722 32.961,3.983 24.266,0.242 22.727,-0.417 20.887,0.314 20.228,1.853 13.564,17.339 6.905,32.83 0.245,48.316 c -0.663,1.539 0.068,3.375 1.606,4.033 8.695,3.74 17.393,7.484 26.09,11.225 0.829,0.356 1.594,0.327 2.24,0.063 0.036,-0.013 0.07,-0.025 0.108,-0.038 0.036,-0.013 0.074,-0.03 0.108,-0.047 0.646,-0.255 1.224,-0.757 1.579,-1.585 C 38.639,46.477 45.3,30.99 51.962,15.5 z"
   id="path4344"
   inkscape:connector-curvature="0"
   style="fill:#67308f" />
	<path
   d="M 43.489,35.197 51.962,15.5 C 52.62,13.961 51.89,12.125 50.351,11.462 L 24.266,0.242 c -1.539,-0.659 -3.379,0.072 -4.038,1.611 -2.353,5.47 -4.705,10.939 -7.059,16.409 9.868,6.013 20.004,11.627 30.32,16.935 z"
   id="path4346"
   inkscape:connector-curvature="0"
   style="fill:#8a5f3d" />
	<path
   d="M 19.063,30.319 30.549,2.911 29.038,2.282 18.04,28.542 c 0.376,0.57 0.72,1.161 1.023,1.777 z"
   id="path4348"
   inkscape:connector-curvature="0"
   style="fill:#764d2a" />
	<path
   d="M 24.869,41.538 39.427,6.8 37.918,6.171 24.063,39.243 c 0.262,0.77 0.53,1.534 0.806,2.295 z"
   id="path4350"
   inkscape:connector-curvature="0"
   style="fill:#764d2a" />
	<path
   d="M 48.728,23.667 16.548,10.182 c -0.17,0.523 -0.359,1.033 -0.595,1.521 L 47.974,25.12 c 0.201,-0.5 0.464,-0.985 0.754,-1.453 z"
   id="path4352"
   inkscape:connector-curvature="0"
   style="fill:#764d2a" />
	
		<rect
   x="39.471001"
   y="8.9020004"
   transform="matrix(0.9228,0.3852,-0.3852,0.9228,14.4472,-13.2462)"
   width="1.633"
   height="41.074001"
   id="rect4354"
   style="fill:#764d2a" />
	<path
   d="M 43.489,35.197 C 47.703,38.932 31.575,50.008 29.148,52.749 26.721,55.486 25.846,47.084 22.62,39.057 20.111,32.814 9.518,18.513 13.168,18.262 c 4.557,-0.31 26.116,13.2 30.321,16.935 z"
   id="path4356"
   inkscape:connector-curvature="0"
   style="fill:#e7e6e6" />
</g>
</svg>
